!!!!SEGMENT: pl-kc--40102-iii-1-saf--001-006_zielenski-mikolaj--offertoria-totius-anni-in-festo-sanctorum-innocentum-anima-nostra.krn
!!!cenid: 16xx:1485
!!!COM: Zieleński, Mikołaj
!!!COM-rismID: pe30013481
!!!CDT: <1611->1611
!!!CNT: Polish
!!!GTL: Offertoria totius anni
!!!OTL: In festo Sanctorum Innocentum/Anima nostra
!!!OMV: 006
!!!PDT: 1611
!!!AGN: Sacred
!!!YEC: Copyright 2022 Narodowy Instytut Fryderyka Chopina (https://polishscores.org)
!!!YEM: License CC-BY-4.0 (https://creativecommons.org/licenses/by/4.0)
!!!SMS-siglum: PL-Kc
!!!SMS-shelfmark: 40102 III/1 Saf.
!!!SMS-shelfwork: 001-006 G
!!!SMS-variant:
!!!SMS-altvar:
!!!NIFC-rismSourceID: 990069886
!!!NIFC-rismChildID: 990069886
!!!NIFC-islandoraID: none
!!!URL-pdf-islandora:
!!!URL-scan: https://cyfrowe.mnk.pl/dlibra/publication/24235/edition/23926/content?ref=desc @EN{Scan on The National Museum in Krakow Website} @PL{Skany w portalu Biblioteka Cyfrowa Muzeum Narodowego w Krakowie}
!!!IIIF:
!!!ONB-nifc: UWAGA: str. 8-9. Uwaga: W xml metrum 2/1 do źródłowego C| i odpowiednio 3/1 do 3/2
!!!AIN: 4 organ
!!!key:
**kern	**kern	**kern	**kern
*group1	*group1	*group1	*group1
*part4	*part3	*part2	*part1
*staff4	*staff3	*staff2	*staff1
*I""Organo	*I""Organo	*I""Organo	*I""Organo
*I''org	*I''org	*I''org	*I''org
*Iorgan	*Iorgan	*Iorgan	*Iorgan
*ICklav	*ICklav	*ICklav	*ICklav
*clefF5	*clefC3	*clefC3	*clefC1
*k[]	*k[]	*k[]	*k[]
*a:	*a:	*a:	*a:
*M2/1	*M2/1	*M2/1	*M2/1
*met(C|)	*met(C|)	*met(C|)	*met(C|)
=1	=1	=1	=1
!	!LO:TX:a:t=Secondo Choro Quattro Tromboni.	!LO:TX:a:t=Anima noſtra.	!LO:TX:a:t=In feſto Sanctorum Inno centum. A 7.
00r	00r	1.e	1.b
.	.	2e\	2b\
=2-	=2-	=2-	=2-
.	.	1e	1b
.	.	1A	1cc
=3	=3	=3	=3
00r	00r	2e\	2b\
.	.	1c	1ee
.	.	2g\	2dd\
=4-	=4-	=4-	=4-
.	.	2a\	1cc
.	.	2A/	.
.	.	2e\	2b\
.	.	2d\	2dd\
=5	=5	=5	=5
00r	00r	2.g\	2.dd\
.	.	4g\	4dd\
.	.	2g\	2dd\
.	.	2c/	2ee\
=6-	=6-	=6-	=6-
.	.	2.f\	2.cc\
.	.	4f\	4cc\
.	.	2f\	2cc\
.	.	2d\	2dd\
=7	=7	=7	=7
0r	0r	1e	2cc\
.	.	.	4b\
.	.	.	4a\
.	.	1E	2b\
.	.	.	2b\
=8-	=8-	=8-	=8-
1.AA	1.e	1A	1a
.	.	1r	1r
2AA/	2e\	.	.
=9	=9	=9	=9
1AA	1e	00r	00r
1DD	1f	.	.
=10-	=10-	=10-	=10-
2AA/	2e\	.	.
1FF	1a	.	.
2C\	2g\	.	.
=11	=11	=11	=11
2D\	1f	00r	00r
2DD/	.	.	.
2AA/	2e\	.	.
2GG/	2g\	.	.
=12-	=12-	=12-	=12-
2.C\	2.g\	.	.
4C\	4g\	.	.
2C\	2g\	.	.
2FF/	2a\	.	.
=13	=13	=13	=13
2.BB-X\	2.f\	00r	00r
4BB-\	4f\	.	.
2BB-\	2f\	.	.
2GG/	2g\	.	.
=14-	=14-	=14-	=14-
1.AA	2f\	.	.
.	4e\	.	.
.	4d\	.	.
.	2e\	.	.
2AA/	2e\	.	.
=15	=15	=15	=15
1DD	1d	0r	0r
1r	1r	.	.
=16-	=16-	=16-	=16-
1.DD	1.f	1.d	1.dd
2DD/	2f\	2A/	2dd\
=17	=17	=17	=17
1AA	1e	1A	1cc
1EE	1e	1B	1b
=18-	=18-	=18-	=18-
1AA	2c#X/	2E/	2a\
.	2r	1A	1cc
1r	1r	.	.
.	.	2F/	2a\
*custos:FF	*custos:A	*custos:c	*custos:g
!!LO:LB:g=original
=19	=19	=19	=19
1r	1r	1c	1g
2r	2r	2F/	2a\
1FF/	1A/	1f\	2.cc\
=20-	=20-	=20-	=20-
.	.	.	.
.	.	.	4a\
2DD/	2.a\	2f\	2.dd\
1AA	.	1e	.
.	4e\	.	8cc#X\
.	.	.	8b\
.	2a\	.	2cc#\
=21	=21	=21	=21
1DD	1f#X	2a\	2dd\
.	.	2d\	2a\
1r	1r	2.G/	2.b\
.	.	4G/	4b\
=22-	=22-	=22-	=22-
0r	0r	2G/	2b\
.	.	2c/	2g/
.	.	2.A/	2.cc\
.	.	4A/	4cc\
=23	=23	=23	=23
0r	0r	2A/	2cc\
.	.	2G#X/	1b
.	.	2.A/	.
.	.	.	1a\
.	.	4Gny/	.
=24-	=24-	=24-	=24-
1r	1r	2F/	.
.	.	2F/	2a\
2r	2r	1E	1g#X
2EE/	2B/	.	.
=25	=25	=25	=25
!	!	!	!LO:TX:t=P:problem=brak pauzy 2r
2.EE/	2.B/	2r	2ryy
.	.	2e\	2ee\
4EE/	4B/	.	.
!	!	!LO:N:vis=2	!
1AA	1c#X	2.e\	2.cc#X\
.	.	4A/	4cc#\
=26-	=26-	=26-	=26-
2r	2r	1d	1dd
2DD/	2d\	.	.
2.GG/	2.B/	2r	2r
.	.	2g\	2dd\
4GG/	4B/	.	.
=27	=27	=27	=27
1CC	2e\	2.g\	2.ee\
.	2.e\	.	.
.	.	4g\	4ee\
2.C\	.	2e\	2cc\
.	4d\	.	.
*	*	*lig	*
.	4c/	1e\	2.ee\
4BB/	4d\	.	.
=28-	=28-	=28-	=28-
1AA	2e\	.	.
.	.	.	4dd\
.	2A/	1f	2cc\
[y1BB	2r	.	[y1b
*	*	*Xlig	*
.	2B/	[y2e\	.
=29	=29	=29	=29
!LO:N:xstem:cue:vis=4	!	!LO:N:xstem:cue	!LO:N:xstem:cue:vis=4
2BB/]	2.B/	4e]	2b]
.	.	8d#X\	.
.	.	8c\	.
2BB/	.	2d#\	2b\
.	4B/	.	.
2EE/	2B/	1e	1b
1E\	1B/	.	.
=30-	=30-	=30-	=30-
.	.	0ryy	0r
2C#X\	2e\	.	.
2.D\	2.d\	.	.
4D\	4d\	.	.
=31	=31	=31	=31
2D\	2d\	1r	1r
2BB/	2d\	.	.
1AA	1c#X	2r	2r
.	.	1A/	1e/
=32-	=32-	=32-	=32-
0r	0r	.	.
.	.	2F/	2a\
.	.	2.E/	2.g#X/
.	.	4e\	4b\
=33	=33	=33	=33
00r	00r	2A/	2cc\
.	.	2B/	2dd\
.	.	2c/	2g/
.	.	4r	2cc\
.	.	4A/	.
=34-	=34-	=34-	=34-
.	.	2e\	2b\
.	.	4r	2ee\
.	.	4c/	.
.	.	2g\	2dd\
.	.	4r	4r
.	.	[<4d\	[<4ff\
=35	=35	=35	=35
0r	0r	4d]	4ff]
.	.	4d\	4ff\
.	.	2e\	2ee\
.	.	2f\	2dd\
.	.	2g\	2dd\
=36-	=36-	=36-	=36-
2r	2r	1c	1ee
1AA	1e	.	.
.	.	1r	1r
2FF/	2a\	.	.
=37	=37	=37	=37
2.EE/	2.g#X\	00r	00r
4E\	4g#\	.	.
2C#X\	2a\	.	.
2D\	2f\	.	.
=38-	=38-	=38-	=38-
2AA/	2e\	.	.
4r	2a\	.	.
4AA/	.	.	.
2D\	2f#X\	.	.
2DD/	4r	.	.
.	4f#X\	.	.
=39	=39	=39	=39
2GG/	2g\	00r	00r
4r	4r	.	.
2CC/	2g\	.	.
4CC/	4g\	.	.
2DD/	2f\	.	.
=40-	=40-	=40-	=40-
2.EE/	1e	.	.
4FF/	.	.	.
2GG/	1d	.	.
2GG/	.	.	.
=41	=41	=41	=41
1CC	1e	2r	2r
.	.	1c	1ee
1r	1r	.	.
.	.	2A/	2cc\
=42-	=42-	=42-	=42-
0r	0r	2.e\	2.b\
.	.	4c#X/	4ee\
.	.	2d\	2dd\
.	.	2B/	2dd\
=43	=43	=43	=43
1r	1r	1A	1cc#X
1.AA	1.a	2.c/	1.ee
.	.	4B/	.
=44-	=44-	=44-	=44-
.	.	4c/	.
.	.	4d\	.
2AA/	2A/	2e\	2ccny\
2.EE/	2.e\	2.e\	2.b\
4EE/	4e\	4g\	4ee\
*custos:FF	*custos:a	*custos:f	*custos:cc
!!LO:PB:g=original
=45	=45	=45	=45
2FF/	2a\	2f\	2cc\
2DD/	2f\	2f\	2dd\
1CC	1e	2g\	2.ee\
.	.	2c/	.
.	.	.	4ee\
=46-	=46-	=46-	=46-
2r	2r	1g	1dd
2GG/	2B/	.	.
2.DD/	2.A/	2r	2r
.	.	2a\	2ff\
4DD/	4A/	.	.
=47	=47	=47	=47
2AA/	2c/	2a\	2ee\
2.AA/	2.c/	2.a\	2.ee\
4AA/	4A/	4a\	4ee\
2BB/	2d\	2f\	2dd\
=48-	=48-	=48-	=48-
2C\	2g\	1e	2.cc\
4BB/	2r	.	.
4AA/	.	.	8dd\
.	.	.	8cc\
1E	1r	[>1e	2b\
.	.	.	[y2ee\
=49	=49	=49	=49
!	!	!	!LO:N:xstem:cue
1EE	2.e\	1e]	4ee\]
.	.	.	4dd\
.	.	.	2b\
.	4d\	.	.
1AA	1c#X	2e\	2cc#X\
.	.	2A/	2ee\
=50-	=50-	=50-	=50-
2r	2r	2d\	2dd\
1DD	1d	4d\	1ff
.	.	4e\	.
.	.	4f\	.
.	.	4d\	.
2AA/	2A/	2e\	2ee\
=51	=51	=51	=51
2DD/	2a\	2f\	2dd\
2AA/	2e\	2e\	2cc#X\
0.DD	1ryy	4d\	2.ff#X\
.	.	4e\	.
.	.	4f\	.
.	.	4g\	4ee\
=52-	=52-	=52-	=52-
.	1.f	2.a\	4dd\
.	.	.	4a\
.	.	.	4dd\
.	.	4g\	4ee\
.	.	4f\	1ffny
.	.	4d\	.
.	2f\	4f\	.
.	.	4g\	.
=53-	=53-	=53-	=53-
0AAl	0el	1a	0eel
.	.	1al	.
==	==	==	==
*-	*-	*-	*-
!!!system-decoration: *
!!!RDF**kern: > = above
!!!RDF**kern: < = below
!!!RDF**kern: l = terminal long
!!!ENC: Andrzej Gręziak
!!!END: 2021-12-14
!!!ENC: Andrzej Kubiczek
!!!END: 2021-12-18
